X: 1
T: Drowsy Maggie (Liz Carroll's 3-part version)
S: Liz Carroll, A Friend Indeed B 4b
R: reel
M: C|
L: 1/8
K: EDor
|: "Em"E2BE dEBE | E2BE "D"AFDF | "Em"E2BE dEBE | BABc "D"dAFD :|
|| "D"d2fd "A7"c2ec | "D"defg afge | "D"d2fd "A7"c2ec | "G"BABc "D"dAFA |
|  "D"d2fd "A7"c2ec | "D"defg afge | afge "A"fdec | "G"BABc "D"dAFD |]
K:A
|| dBfB dBfB | A2 eA fAeA | dBfB dBfB | defg aecf |
|  dBfB dBfB | A2 eA fAeA | EGBe aece | d2 ce dAFD |]
